X: 62
Q: "Allegretto."
M: 4/4
L: 1/8
K: G
E | E c B A E3 E | d d c A (B2 G) D |
E c B A d d d d | e d c A G3 z |]
|: "^Chorus. ( Accompanied by jingling glasses.)"B B B2 B B B2 | B d G> A B4 | c c c> c c B B
[1 B/ B/ | B A A G (A d3) :|[2  B/ B/ | d d c A G3 |]


